!!key: tele-40-6-Fan-All-2-Flute
!!!COM: Telemann, Georg Philipp
!!!CDT: 1681/03/14-1767/06/25
!!!CBL: Magdeburg
!!!CDL: Hamburg
!!!CNT: German
!!!TWV: 40:6
!!!TWV-genre: 40
!!!TWV-work: 6
!!!OPR: 12 Fantasias for transverse flute without bass
!!!OTL: Fantasia 5
!!!OMD: Allegro
!!!OMV: 2
!!!ODT: ca. 1732–1733
!!!AST: Late Baroque
!!!AGN: Fantasia
!!!AMT: Compound triple
!!!AIN: Transverse flute
**kern	**dynam
*ICww	*
*Iflt	*
*clefG2	*
*k[]	*
*C:	*
*M9/8	*
=	=
4.cc`	f
4.a`	.
4.dd`	.
=	=
4.b`	.
4.g`	.
4.cc`	.
=	=
4.a`	.
4.f`	.
4.g`	.
=	=
4cc`	.
8ee	.
4a	.
8aa	.
4dd	.
8ff#X	.
=	=
4b	.
8gg	.
4g	.
8ffn	.
4cc	.
8ee	.
!!LO:LB:g=original
=	=
4a	.
8ff	.
4f	.
8ee	.
4g	.
8dd	.
=	=
8ccL	.
8ee	.
8ggJ	.
8aL	.
8aa	.
8ggJ	.
8ddL	.
8gg	.
8ff#XJ	.
=	=
8bL	.
8ff#X	.
8ggJ	.
8gL	.
8gg	.
8ffnJ	.
8ccL	.
8ff	.
8eeJ	.
=	=
8aL	.
8ee	.
8ffJ	.
8fL	.
8ff	.
8eeJ	.
8gL	.
8dd	.
8bJ	.
!!LO:LB:g=original
=	=
8ccL	.
8ee	.
8ggJ	.
8eeL	.
8gg	.
8cccJ	.
4.r	.
=	=
8ddL	.
8ff	.
8aaJ	.
8ffL	.
8aa	.
8dddJ	.
4.r	.
=	=
8eL	.
8g#X	.
8bJ	.
8g#L	.
8b	.
8eeJ	.
4.r	.
=	=
4aa	.
8a	.
4ff#X	.
8dd	.
4bb	.
8b	.
=	=
4gg#X	.
8e	.
4ee	.
8cc	.
4aa	.
8a	.
!!LO:LB:g=original
=	=
4ff	.
8d	.
4dd	.
8f	.
4ee	.
8e	.
=	=
8aL	.
8cc	.
8eeJ	.
8f#XL	.
8dd#X	.
8eeJ	.
8bL	.
8ee	.
8dd#J	.
=	=
8g#XL	.
8b	.
8eeJ	.
8eL	.
8ddn	.
8bJ	.
8aL	.
8cc	.
8eeJ	.
=	=
8fL	.
8gg#X	.
8aaJ	.
8dL	.
8gg#	.
8aaJ	.
8eL	.
8aa	.
8gg#J	.
!!LO:LB:g=original
=	=
8aL	.
8cc	.
8eeJ	.
8ccL	.
8ee	.
8aaJ	.
4.r	.
=	=
8gnL	.
8cc#X	.
8eeJ	.
8cc#L	.
8ee	.
8aaJ	.
4.r	.
=	=
8fL	.
8a	.
8ddJ	.
8ffL	.
8dd	.
8ffJ	.
8aaL	.
8gg	.
8ffJ	.
=	=
8eL	.
8g	.
8cc#XJ	.
8eeL	.
8cc#	.
8eeJ	.
8ggL	.
8ff	.
8eeJ	.
!!LO:LB:g=original
=	=
4ddd	.
8dd	.
4bb	.
8gg	.
4eee	.
8ee	.
=	=
4ccc#X	.
8a	.
4aa	.
8ff	.
4ddd	.
8dd	.
=	=
4bb-X	.
8g	.
4gg	.
8b-X	.
4aa	.
8a	.
=	=
8ddL	.
8a	.
8ccJ	.
8bnL	.
8g	.
8bJ	.
8eeL	.
8g	.
8ddJ	.
=	=
8cc#XL	.
8ee	.
8cc#J	.
8aL	.
8aa	.
8ggJ	.
8ddL	.
8ff	.
8ddJ	.
!!LO:LB:g=original
=	=
8b-XL	.
8dd	.
8b-J	.
8gL	.
8ee	.
8ddJ	.
8aL	.
8dd	.
8cc#XJ	.
=	=
8dL	.
8dd	.
8eeJ	.
8ffL	.
8ee	.
8ddJ	.
4.r	.
=	=
8ccL	.
8aa	.
8ggJ	.
8ff#XL	.
8gg	.
8aaJ	.
4.r	.
=	=
8bL	.
8ff#X	.
8eeJ	.
8dd#XL	.
8ee	.
8ff#J	.
8bL	.
8bb	.
8aaJ	.
!!LO:LB:g=original
=	=
8eeL	.
8ff#X	.
8ggJ	.
4cc#X	.
8gg	.
8ff#L	.
8gg	.
8aaJ	.
=	=
8dd#XL	.
8ee	.
8ff#XJ	.
4b	.
8bb	.
8eeL	.
8gg	.
8bbJ	.
=	=
8ccL	.
8ee	.
8aaJ	.
8aL	.
8aa	.
8cccJ	.
4b	.
8dd#X	.
=	=
8eeL	.
8e	.
8ddnJ	.
4.cc#X	.
8ffL	.
8f	.
8eeJ	.
!!LO:LB:g=original
=	=
4.dd#X	.
8bL	.
8g	.
8bJ	.
8eeL	.
8b	.
8gJ	.
=	=
8ccL	.
8a	.
8ccJ	.
8aL	.
8f#X	.
8aJ	.
8bL	.
8d#X	.
8bJ	.
=	=
8eL	.
8ee	.
8ff#XJ	.
8ggL	.
8ff#	.
8eeJ	.
4.r	.
=	=
8aL	.
8cc#X	.
8eeJ	.
8cc#L	.
8ee	.
8ggJ	.
8bb-L	.
8aa	.
8ggJ	.
!!LO:LB:g=original
=	=
8d\L	.
8ffn	.
8eeJ	.
8ffL	.
8ee	.
8ddJ	.
4.r	.
=	=
8gL	.
8b	.
8ddJ	.
8bL	.
8dd	.
8ffJ	.
8aaL	.
8gg	.
8ffJ	.
=	=
4ccc	.
8ee	.
4aa	.
8ff	.
4ddd	.
8ff#X	.
=	=
4bb	.
8g	.
4gg	.
8fn	.
4ccc	.
8e	.
=	=
4aa	.
8f	.
4ff	.
8a	.
4gg	.
8b	.
!!LO:LB:g=original
=	=
8ccL	.
8b	.
8ccJ	.
8aL	.
8cc	.
8ffJ	.
8ddL	.
8cc#X	.
8ddJ	.
=	=
8bL	.
8dd	.
8ggJ	.
8gL	.
8f#X	.
8gJ	.
8ccnL	.
8ee	.
8ggJ	.
=	=
8aL	.
8g	.
8aJ	.
8fnL	.
8a	.
8ddJ	.
8g\L	.
8cc	.
8bJ	.
=	=
8ccL	.
8ee	.
8ggJ	.
8eeL	.
8gg	.
8cccJ	.
4.r	.
=	=
8f#XL	.
8dd	.
8aaJ	.
8ff#XL	.
8aa	.
8cccJ	.
4.r	.
!!LO:LB:g=original
=	=
8gL	.
8b	.
8ddJ	.
8bL	.
8dd	.
8ffnJ	.
8aaL	.
8gg	.
8ffJ	.
=	=
8ccL	.
8ee	.
8ggJ	.
8aL	.
8ff#X	.
8ggJ	.
8ddL	.
8gg	.
8ff#J	.
=	=
8bL	.
8dd	.
8ggJ	.
8gL	.
8ffn	.
8ddJ	.
8ccL	.
8ee	.
8ggJ	.
=	=
8fL	.
8bb	.
8cccJ	.
8aL	.
8bb	.
8cccJ	.
4g	.
8bb	.
=	=
8cccL	.
8gg	.
8eeJ	.
4.cc	.
4.r	.
==	==
*-	*-
!!!RTL1: G. PH. Telemann: Twelve Fantasias for Flute without Bass TWV 40:2-13
!!!RPN1: D'Arcangelo, Rita
!!!RMM1: Da Vinci Classics
!!!RC#1: DV-C00440
!!!RRD1: 2022
!!!RLC1: Andreaskirche, Berlin, Germany
!!!RDT1: 16 September 2020, 17 September 2020
!!!RT#1: 5
!!!RTL2: The Telemann Files: 12 Fantasies for Solo Flute
!!!RPN2: Choi, Jasmine
!!!RMM2: Austrian Gramophone
!!!RC#2: AG0001
!!!RRD2: February 2015
!!!RLC2: LeFrak Hall, Queens, USA
!!!RDT2: 9 June 2014, 10 June 2014
!!!RT#2: 5
!!!RTL3: Georg Philipp Telemann: Twelve Fantasies for Flute
!!!RPN3: Robertello, Thomas
!!!RMM3: Delos
!!!RC#3: DE3396
!!!RRD3: 1 June 2009
!!!RLC3: Clear Creek Recording, Keene, California
!!!RDT3: Unknown
!!!RT#3: 5
